assets/svg/icon_channel_mute.svg

<svg width="24" height="24" viewBox="0 0 24 24" fill="none" xmlns="http://www.w3.org/2000/svg">
<g id="icon/channel_mute">
<path id="Vector" d="M10.0895 17.6716C11.6198 19.0329 13.7519 20.3145 15.2518 20.3145C15.4853 20.3145 15.7036 20.2841 15.9011 20.2176C15.9068 20.2157 15.9125 20.2138 15.9201 20.2119C17.6953 19.5531 18.5952 16.8856 18.5952 12.2853C18.5952 11.5164 18.5952 10.643 18.4889 9.76206M19.4457 3.67969L17.4218 5.6922M17.4218 5.6922C17.3174 5.52323 17.2015 5.36184 17.0686 5.21186C16.7592 4.86251 16.3871 4.58532 15.9656 4.38786C15.9504 4.38027 15.9352 4.37457 15.92 4.36888C14.4068 3.8031 11.7792 5.41501 9.90524 7.02881H8.65217C7.49592 7.02881 6.40992 7.47878 5.59163 8.29708C4.77333 9.11537 4.32337 10.2014 4.32337 11.3576V13.2125C4.32337 14.0498 4.56259 14.8624 5.01635 15.5649C5.33722 16.0623 5.75491 16.4819 6.24285 16.8085M17.4218 5.6922L6.24285 16.8085M6.24285 16.8085L3.68164 19.3564" stroke="#5A5E66" stroke-width="1.2" stroke-linecap="round"/>
</g>
</svg>

<svg xmlns="http://www.w3.org/2000/svg" width="24" height="24" fill="none"><path stroke="#5A5E66" stroke-linecap="round" stroke-width="1.2" d="M10.09 17.672c1.53 1.36 3.662 2.642 5.162 2.642a2 2 0 0 0 .668-.102c1.775-.659 2.675-3.326 2.675-7.927 0-.769 0-1.642-.106-2.523m.957-6.082-2.024 2.012m0 0A3.383 3.383 0 0 0 15.92 4.37c-1.513-.566-4.14 1.046-6.015 2.66H8.652c-1.156 0-2.242.45-3.06 1.268a4.3 4.3 0 0 0-1.269 3.06v1.856a4.32 4.32 0 0 0 1.92 3.595M17.422 5.692 6.242 16.808m0 0-2.56 2.548"/></svg>
